X: 25292
T: Man Of The House, The
R: reel
M: 4/4
K: Eminor
E2BE GABG|E2BE AFDF|E2BE GABc|dBBA BEED|
E2BE GABG|E2BE AFDF|E2BE GABc|dBBA BEE2||
efge fgaf|gfed ed (3Bcd|efge fgaf|gfed Bee2|
efge fgaf|gfed ed (3Bcd|bgaf gefd|e2BA GEFD||

